X: 21
T: Bourough Fair
T: Longways for as many as will.
%R:
B: Daniel Wright "Wright's Compleat Collection of Celebrated Country Dances" 1740 p.11
S: http://library.efdss.org/cgi-bin/dancebooks.cgi
Z: 2014 John Chambers <jc:trillian.mit.edu>
M: 3/2
L: 1/4
K: Bb
% - - - - - - - - - - - - - - - - - - - - - - - - -
[|\
B,2 DF BA/G/ | FE DC B,2 | fe/d/ cB AG | FG AB c2 |\
ed/c/ dE D2 | dc/B/ cD C2 | cB/A/ BA/G/ F/E/D/C/ | B,/C/D/E/ F/G/A/B B2 |]
[|\
fa gf ed | F_A GF ED | eg fe dc | EG FE C2 |\
B,D F/_A/G/F/ GE | CE G/B/A/G/ AF | dc/B/ cA BA/G/ | FE DC B,2 |]
% - - - - - - - - - - - - - - - - - - - - - - - - -
%%begintext align
%% The 1st Cu. lead down the middle cast up behind the
%% 3d Cu. lead thro' the 2d Cu. & cast off .| the 2d Cu. do
%% the same :| 1st Cu. cross half figure thro' the 2d Cu. &
%% turn Partners in the 2d Cu. Place .| The 1st Man go
%% Round the 3d Man & the 1st Wo. round the 2d Man then
%% the 1st Man go round the 2d Man & the 1st Wo. round
%% The 3d Man & turn one another in the 2d Cu. Place.
%%endtext
% - - - - - - - - - - - - - - - - - - - - - - - - -
%%sep 2 4 300
